X:235
T:D'nde ser aquel paxarn (CT 439)
C:Tradicional
S:Msica Tradicional Asturiana, (C) Tello & Tito. Asturies, 2001.
S:http://pagina.de/MusTradAst <telloytito@asturies.org>
N:Cancin de empleo indeterminado, dictada por Andrs Llabona Llabona, de veinticuatro aos, de Torazo, ayuntamiento de Cabranes.
A:Asturies
O:Torazo (Cabranes)
Z:Cancioneru de Torner 439
M:3/4
L:1/8
Q:1/4=100
K:C
GG/G/|c3 B de|(fe d2) e2|f2 fe dc|ee-d z :|
dd|d3 e dc|ed/c/ B/c/d/d/ (6c/d/c/B/A/B/)|cc cd cA|(B3/2(3c/4B/4A/4 G4-)|G2 ||
W:D'nde ser aquel paxarn
W:que canta en la verde oliva
W:Vete all y dile que calle,
W:lori, lori, lori,
W:que su cantar me lastima.
W:
